X:1
T:Title
%%score 1 2
L:1/8
Q:1/4=110
M:4/4
K:F
V:1 treble nm="Grand Piano, Soprano"
V:2 bass nm="Choir Pad, Now He Uses Me"
V:1
 C2 [CF]2- [CF][CE] [CF]2 | [EG]2 [FA]2 [Fc]4 | [CF]2 [EG]2- [EG][E^F] [EG]2 | [EA]2 [CF]6 | %4
w: By~Walter~Stillman~Martin * * * *||||
 [CF]2 [CF]2- [CF][CE] [CF]2 | [EG]2 [FA]2 [Fc]4 | [Fd]2 [CF]2 [CF]2 [FA]2- | [FA][EG] [CF]6 | %8
w: ||||
 C2 [EA]2 [EG]2 [E^F]2 | [EG]2 [Ec]6 | C2 [CG]2 [CF]2 [CE]2 | [CF]2 [Fc]6 | C2 D2 [DF]2 [DB]2 | %13
w: |||||
 [Fd]2 [Fc][FA]- [FA]2 [FG]2 | [DF]2 [EG]2 [Ec]>[Ec] [Ec]2 | C2 [EA]2 [EG]2 [E^F]2 | [EG]2 [Ec]6 | %17
w: ||||
 C2 [CG]2 [CF]2 [CE]2 | [CF]2 [Fc]6 | [Fc]2 [Fd]2 [Fd]2 [DF]2 | [Fd]2 [Fc][FA]- [FA]2 [FA]2- | %21
w: ||||
 [FA][EG] [CF]6- | [CF]2 z2 z4 |] %23
w: ||
V:2
 [F,A,]2 [F,A,]2- [F,A,][F,G,] [F,A,]2 | [C,C]2 [F,C]2 [F,A,]4 | %2
 [F,A,]2 [C,B,]2- [C,B,][C,A,] [C,B,]2 | [C,C]2 [F,A,]6 | [F,A,]2 [F,A,]2- [F,A,][F,G,] [F,A,]2 | %5
 [C,C]2 [F,C]2 [F,A,]4 | [B,,B,]2 [C,A,]2 [C,A,]2 [C,C]2- | [C,C][C,B,] [F,A,]6 | %8
 C,2 [C,B,]2 [C,B,]2 [C,A,]2 | [C,B,]2 [C,B,]2 [C,B,]2 [C,B,]2 | [C,B,]2 [F,B,]2 [F,A,]2 [F,G,]2 | %11
 [F,A,]2 [F,A,]2 [F,A,]2 [F,A,]2 | [F,A,]2 [B,,F,]2 [B,,B,]2 [B,,B,]2 | %13
 [B,,B,]2 [F,A,][F,C]- [F,C]2 [D,=B,]2 | [G,=B,]2 [C,C]2 [C,_B,]>[C,B,] [C,B,]2 | %15
 C,2 [C,B,]2 [C,B,]2 [C,A,]2 | [C,B,]2 [C,B,]2 [C,B,]2 [C,B,]2 | [C,B,]2 [F,B,]2 [F,B,]2 [F,G,]2 | %18
 [F,A,]2 [F,A,]2 [F,A,]2 [F,A,]2 | [F,A,]2 [B,,B,]2 [B,,B,]2 [B,,B,]2 | %20
 [B,,B,]2 [F,A,][F,C]- [F,C]2 [C,C]2- | [C,C][C,B,] [F,A,]6- | [F,A,]2 z2 z4 |] %23

